Suru++-Ubuntu/apps/scalable/goa-account-pocket.svg

<svg width="256" height="256" version="1.1" viewBox="0 0 67.73 67.73" xmlns="http://www.w3.org/2000/svg" xmlns:xlink="http://www.w3.org/1999/xlink">
 <defs>
  <linearGradient id="linearGradient1108" x1="296" x2="296" y1="-212" y2="202.4" gradientUnits="userSpaceOnUse">
   <stop style="stop-color:#ffffff" offset="0"/>
   <stop style="stop-color:#ffffff;stop-opacity:.09803922" offset=".135"/>
   <stop style="stop-color:#ffffff;stop-opacity:0" offset="1"/>
  </linearGradient>
  <clipPath id="clipPath1082-3-3675">
   <path d="M 361.9375,-212 C 507.2348,-212 528,-191.28677 528,-46.125 V 70.125 C 528,215.28618 507.2348,236 361.9375,236 H 214.0625 C 68.7652,236 48,215.28618 48,70.125 V -46.125 C 48,-191.28677 68.7652,-212 214.0625,-212 Z" style="fill:#8c59d9"/>
  </clipPath>
  <filter id="filter910" x="-.02" y="-.03" width="1.046" height="1.05" style="color-interpolation-filters:sRGB">
   <feGaussianBlur stdDeviation="2.32"/>
  </filter>
  <filter id="filter4569" x="-.01" y="-.01" width="1.023" height="1.025" style="color-interpolation-filters:sRGB">
   <feGaussianBlur stdDeviation="1.16"/>
  </filter>
 </defs>
 <g transform="translate(0,-229.26666)">
  <g transform="matrix(.12974173 0 0 .12974173 3.8344818 227.85345)" style="enable-background:new">
   <path transform="matrix(2.0393079,0,0,2.0393079,-29.55473,37.126102)" d="m162.53675 3.5680001c72.64865 0 83.03125 10.356615 83.03125 82.937505v58.125005c0 72.58059-10.3826 82.9375-83.03125 82.9375h-73.937496c-72.648654 0-83.031254-10.35691-83.031254-82.9375v-58.125005c0-72.58089 10.3826-82.937505 83.031254-82.937505z" style="filter:url(#filter4569);opacity:.1"/>
   <path transform="matrix(2.0393079,0,0,2.0393079,-29.55473,37.126102)" d="m162.53675 5.5680001c72.64865 0 83.03125 10.356615 83.03125 82.937505v58.125005c0 72.58059-10.3826 82.9375-83.03125 82.9375h-73.937496c-72.648654 0-83.031254-10.35691-83.031254-82.9375v-58.125005c0-72.58089 10.3826-82.937505 83.031254-82.937505z" style="filter:url(#filter910);opacity:.2"/>
   <path d="m301.90773 43.795222c148.15296 0 169.32628 21.120327 169.32628 169.1351v118.53478c0 148.01417-21.17332 169.1351-169.32628 169.1351h-150.78132c-148.15297 0-169.32628-21.12093-169.32628-169.1351v-118.53478c0-148.01477 21.17331-169.1351 169.32628-169.1351z" style="fill:#f7f7f7"/>
   <g transform="matrix(2.0393079,0,0,2.0393079,-42.691246,28.642354)">
    <g transform="translate(60.915619,58.139761)">
     <path d="m71.210426 62.665906c-0.423969-0.393872-0.745871-0.684369-1.058613-0.984026-10.137296-9.738189-20.262815-19.488156-30.414505-29.210642-4.650568-4.452977-11.787371-4.289409-16.218103 0.314051-4.363997 4.534106-4.303804 11.715399 0.285263 16.150057 13.1548 12.708587 26.347547 25.379225 39.562541 38.02631 4.403252 4.213514 11.182823 4.170332 15.648886 0.01047 1.78878-1.665777 3.533072-3.378662 5.295682-5.073228 11.29928-10.859612 22.592023-21.727076 33.903083-32.573603 2.71785-2.606621 4.14155-5.75498 3.78432-9.503961-0.45407-4.767026-2.96778-8.198031-7.48095-9.841563-4.49878-1.638298-8.5906-0.649038-12.06217 2.666814-5.6817 5.426534-11.337233 10.883165-17.003233 16.32802-4.714687 4.53149-9.431991 9.066906-14.242201 13.691303zm-0.02879-76.471352c22.766061 0 45.532124-0.0065 68.298184 0.0039 7.05437 0.0039 13.11817 4.5550441 14.87554 11.168429 0.27741 1.044219 0.45145 2.149939 0.45276 3.22818 0.0105 17.788358 0.0981 35.578023-0.0628 53.36507-0.16357 18.173069-5.66077 34.62671-16.84752 48.993227-12.44819 15.98913-28.50273 26.51899-48.289233 31.09236-45.432675 10.49845-88.833177-18.82473-99.546234-59.865929-1.4276223-5.471026-2.4011793-11.023181-2.4482873-16.673477-0.157025-18.922865-0.274794-37.845728-0.266943-56.767286 0.0039-7.965112 7.1093243-14.534006 15.405498-14.540549 22.809242-0.01439 45.619794-0.0039 68.429038-0.0039z" style="clip-rule:evenodd;fill-rule:evenodd;fill:#f43b53"/>
    </g>
   </g>
   <g transform="translate(0 .20341253)">
    <path transform="matrix(2.0393079,0,0,2.0393079,-29.55473,10.689074)" d="m67.857422 16.632812c-1.131323 0.052465-2.592263 0.023806-3.683594 0.087891-3.618301 0.212474-7.019662 0.490956-10.214844 0.847656-3.195181 0.356701-6.185025 0.792108-8.982422 1.31836-2.797396 0.526252-5.401227 1.144104-7.826171 1.865234-2.424945 0.72113-4.670221 1.544994-6.748047 2.486328-2.077827 0.941335-3.988099 1.998683-5.744141 3.185547-1.668528 1.127716-3.177806 2.391993-4.578125 3.763672h47.777344v-13.554688z" style="fill:#82ecb8"/>
    <path d="m223.53812 43.591809h-75.83278c-14.45452 0-26.7007 0.443046-38.8783 0.932027v27.725825h114.71108z" style="fill:#4fbab5"/>
    <path d="m338.24919 44.476039c-11.64754-0.434577-23.14265-0.88423-36.83897-0.88423h-77.8721v28.657852h114.71107z" style="fill:#ed4154"/>
    <path transform="matrix(2.0393079,0,0,2.0393079,-29.55473,10.689074)" d="m231.05469 30.1875c-1.40031-1.371658-2.90767-2.63597-4.57617-3.763672-1.75605-1.186864-3.66632-2.244212-5.74414-3.185547-2.07783-0.941334-4.32311-1.765198-6.74805-2.486328-2.42495-0.72113-5.03073-1.338982-7.82813-1.865234-2.79739-0.526252-5.78724-0.961659-8.98242-1.31836-3.16221-0.353019-6.53091-0.628217-10.10742-0.839843-2.00997-0.111383-4.58912-0.080986-6.71094-0.160157v13.619141h50.69727z" style="fill:#fab649"/>
   </g>
   <path transform="matrix(1.0196539,0,0,1.0196539,-67.14326,259.75844)" d="M 361.9375,-212 C 507.2348,-212 528,-191.28677 528,-46.125 V 70.125 C 528,215.28618 507.2348,236 361.9375,236 H 214.0625 C 68.7652,236 48,215.28618 48,70.125 V -46.125 C 48,-191.28677 68.7652,-212 214.0625,-212 Z" clip-path="url(#clipPath1082-3-3675)" style="fill:none;opacity:.5;stroke-linecap:round;stroke-linejoin:round;stroke-width:8;stroke:url(#linearGradient1108)"/>
  </g>
 </g>
</svg>

<svg xmlns="http://www.w3.org/2000/svg" xmlns:xlink="http://www.w3.org/1999/xlink" width="256" height="256" version="1.1" viewBox="0 0 67.73 67.73">
 <defs>
  <linearGradient id="linearGradient1108" x1="296" x2="296" y1="-212" y2="202.4" gradientUnits="userSpaceOnUse" xlink:href="#linearGradient1013"/>
  <linearGradient id="linearGradient1013">
   <stop offset="0" style="stop-color:#ffffff"/>
   <stop style="stop-color:#ffffff;stop-opacity:0.09803922" offset=".135"/>
   <stop style="stop-color:#ffffff;stop-opacity:0" offset="1"/>
  </linearGradient>
  <clipPath id="clipPath1082-3-3675" clipPathUnits="userSpaceOnUse">
   <path d="M 361.9375,-212 C 507.2348,-212 528,-191.28677 528,-46.125 V 70.125 C 528,215.28618 507.2348,236 361.9375,236 H 214.0625 C 68.7652,236 48,215.28618 48,70.125 V -46.125 C 48,-191.28677 68.7652,-212 214.0625,-212 Z" style="fill:#8c59d9"/>
  </clipPath>
  <filter style="color-interpolation-filters:sRGB" id="filter910" width="1.046" height="1.05" x="-.02" y="-.03">
   <feGaussianBlur stdDeviation="2.32"/>
  </filter>
  <filter style="color-interpolation-filters:sRGB" id="filter4569" width="1.023" height="1.025" x="-.01" y="-.01">
   <feGaussianBlur stdDeviation="1.16"/>
  </filter>
 </defs>
 <g transform="translate(0,-229.26666)">
  <g style="enable-background:new" transform="matrix(0.12974173,0,0,0.12974173,3.8344818,227.85345)">
   <path d="m 162.53675,3.5680001 c 72.64865,0 83.03125,10.3566149 83.03125,82.9375049 v 58.125005 c 0,72.58059 -10.3826,82.9375 -83.03125,82.9375 H 88.599254 C 15.9506,227.56801 5.568,217.2111 5.568,144.63051 V 86.505505 c 0,-72.58089 10.3826,-82.9375049 83.031254,-82.9375049 z" transform="matrix(2.0393079,0,0,2.0393079,-29.55473,37.126102)" style="opacity:0.1;filter:url(#filter4569)"/>
   <path style="opacity:0.2;filter:url(#filter910)" d="m 162.53675,5.5680001 c 72.64865,0 83.03125,10.3566149 83.03125,82.9375049 v 58.125005 c 0,72.58059 -10.3826,82.9375 -83.03125,82.9375 H 88.599254 C 15.9506,229.56801 5.568,219.2111 5.568,146.63051 V 88.505505 c 0,-72.58089 10.3826,-82.9375049 83.031254,-82.9375049 z" transform="matrix(2.0393079,0,0,2.0393079,-29.55473,37.126102)"/>
   <path style="fill:#f7f7f7" d="m 301.90773,43.795222 c 148.15296,0 169.32628,21.120327 169.32628,169.135098 V 331.4651 c 0,148.01417 -21.17332,169.1351 -169.32628,169.1351 H 151.12641 c -148.1529701,0 -169.32628,-21.12093 -169.32628,-169.1351 V 212.93032 c 0,-148.014771 21.1733099,-169.135098 169.32628,-169.135098 z"/>
   <g transform="matrix(2.0393079,0,0,2.0393079,-42.691246,28.642354)">
    <g transform="translate(60.915619,58.139761)">
     <g>
      <path d="M 71.210426,62.665906 C 70.786457,62.272034 70.464555,61.981537 70.151813,61.68188 60.014517,51.943691 49.888998,42.193724 39.737308,32.471238 35.08674,28.018261 27.949937,28.181829 23.519205,32.785289 c -4.363997,4.534106 -4.303804,11.715399 0.285263,16.150057 13.1548,12.708587 26.347547,25.379225 39.562541,38.02631 4.403252,4.213514 11.182823,4.170332 15.648886,0.01047 1.78878,-1.665777 3.533072,-3.378662 5.295682,-5.073228 11.29928,-10.859612 22.592023,-21.727076 33.903083,-32.573603 2.71785,-2.606621 4.14155,-5.75498 3.78432,-9.503961 -0.45407,-4.767026 -2.96778,-8.198031 -7.48095,-9.841563 -4.49878,-1.638298 -8.5906,-0.649038 -12.06217,2.666814 -5.6817,5.426534 -11.337233,10.883165 -17.003233,16.32802 -4.714687,4.53149 -9.431991,9.066906 -14.242201,13.691303 z m -0.02879,-76.471352 c 22.766061,0 45.532124,-0.0065 68.298184,0.0039 7.05437,0.0039 13.11817,4.5550441 14.87554,11.1684292 0.27741,1.044219 0.45145,2.14993896 0.45276,3.22817996 0.0105,17.78835784 0.0981,35.57802284 -0.0628,53.36506984 -0.16357,18.173069 -5.66077,34.62671 -16.84752,48.993227 -12.44819,15.98913 -28.50273,26.51899 -48.289233,31.09236 C 44.175892,144.54417 0.77538954,115.22099 -9.9376667,74.179791 -11.365289,68.708765 -12.338846,63.15661 -12.385954,57.506314 -12.542979,38.583449 -12.660748,19.660586 -12.652897,0.73902816 -12.648997,-7.2260838 -5.5435727,-13.794978 2.7526005,-13.801521 c 22.8092425,-0.01439 45.6197945,-0.0039 68.4290375,-0.0039 z" style="clip-rule:evenodd;fill:#f43b53;fill-rule:evenodd"/>
     </g>
    </g>
   </g>
   <g transform="translate(0,0.20341253)">
    <path style="fill:#82ecb8" d="M 67.857422 16.632812 C 66.726099 16.685277 65.265159 16.656618 64.173828 16.720703 C 60.555527 16.933177 57.154166 17.211659 53.958984 17.568359 C 50.763803 17.92506 47.773959 18.360467 44.976562 18.886719 C 42.179166 19.412971 39.575335 20.030823 37.150391 20.751953 C 34.725446 21.473083 32.48017 22.296947 30.402344 23.238281 C 28.324517 24.179616 26.414245 25.236964 24.658203 26.423828 C 22.989675 27.551544 21.480397 28.815821 20.080078 30.1875 L 67.857422 30.1875 L 67.857422 16.632812 z" transform="matrix(2.0393079,0,0,2.0393079,-29.55473,10.689074)"/>
    <path d="m 223.53812,43.591809 h -75.83278 c -14.45452,0 -26.7007,0.443046 -38.8783,0.932027 v 27.725825 h 114.71108 z" style="fill:#4fbab5"/>
    <path d="m 338.24919,44.476039 c -11.64754,-0.434577 -23.14265,-0.88423 -36.83897,-0.88423 h -77.8721 v 28.657852 h 114.71107 z" style="fill:#ed4154"/>
    <path style="fill:#fab649" d="M 231.05469 30.1875 C 229.65438 28.815842 228.14702 27.55153 226.47852 26.423828 C 224.72247 25.236964 222.8122 24.179616 220.73438 23.238281 C 218.65655 22.296947 216.41127 21.473083 213.98633 20.751953 C 211.56138 20.030823 208.9556 19.412971 206.1582 18.886719 C 203.36081 18.360467 200.37096 17.92506 197.17578 17.568359 C 194.01357 17.21534 190.64487 16.940142 187.06836 16.728516 C 185.05839 16.617133 182.47924 16.64753 180.35742 16.568359 L 180.35742 30.1875 L 231.05469 30.1875 z" transform="matrix(2.0393079,0,0,2.0393079,-29.55473,10.689074)"/>
   </g>
   <path d="M 361.9375,-212 C 507.2348,-212 528,-191.28677 528,-46.125 V 70.125 C 528,215.28618 507.2348,236 361.9375,236 H 214.0625 C 68.7652,236 48,215.28618 48,70.125 V -46.125 C 48,-191.28677 68.7652,-212 214.0625,-212 Z" clip-path="url(#clipPath1082-3-3675)" transform="matrix(1.0196539,0,0,1.0196539,-67.14326,259.75844)" style="opacity:0.5;fill:none;stroke:url(#linearGradient1108);stroke-width:8;stroke-linecap:round;stroke-linejoin:round"/>
  </g>
 </g>
</svg>
